X: 355
T: A Small Fee
R: reel
M: 4/4
K: Dmajor
|:c2|dAFD A,DFd|cBGF E4|cBGF EFGE|DEFG AABc|
dAFD A,DFd|cBGF E4|cBGF EFGE|D2 d2 d2:|
K:G
|:=c2|B3 A GABd|e2 e2 dBGB|e2 e2 dBGB|ccBG A4|
B3 A GABd|e2 e2 d4|d^cd^d e=cAF|G4 G2:|

